X:1
T:Title
%%score ( 1 2 ) { 3 | 4 }
L:1/8
Q:1/4=107
M:4/4
K:G
V:1 treble nm="Grand Piano, Soprano"
V:2 treble 
V:3 bass nm="Choir Pad, Mostar, 86.86.88"
V:4 bass 
V:1
 z8 | z2 .A2 z4 | z4 z2 .F2 | cB [DA]6 | D2 [DB]2 [DB]2 [DB]2- | [DB][DG]AG [DF][CE] [B,D]2- | %6
 [B,D]D [CE]2 [Ec]2 BA | GF [DG]6 | [DF][EG] [FA]2 [GB]2 [FA]2 | GA [GB]2 [Gc]2 [GB]2 | %10
 Bc [Gd]2 [Ge]2 [Gd]2- | [Gd]G[GB][DA] D-[DF] [DG]2- | [DG]6 z2 |] %13
V:2
 [B,D]2 [DB]2 [DB]2 [DB]2- | [DB][DG]E-[EG] [DF][CE] [B,D]2- | [B,D]D [CE]2 [DG]2 D-[DG] | %3
 D2 z2 z4 | x8 | z2 E2 z4 | z4 z2 D2 | D2 z2 z4 | x8 | x8 | G2 z2 z4 | z4 .G2 z2 | x8 |] %13
V:3
 G,2 G,2 G,2 G,2- | G,G, G,2 G,2 G,2- | G,G, G,2 G,2 A,B, | A,G, F,6 | F,2 G,2 G,2 G,2- | %5
 G,B, C2 G,2 G,2- | G,G, G,2 G,2 G,C | B,A, B,6 | A,2[K:treble] D2 D2 D2 | B,C D2 E2 D2 | %10
 G,A, B,2 C2 B,2- | B,B,DC B,A, B,2- | B,6 z2 |] %13
V:4
 G,,2 G,,2 G,,2 G,,2- | G,,B,, C,2 C,2 G,,2- | G,,B,, C,2 B,,2 D,2 | .F,2 D,6 | D,2 z2 z4 | %5
 z G, C,2 C,2 G,,2- | G,,B,, C,2 C,2 D,2 | D,2 G,,6 | D,2 D,2 D,2 D,2 | G,2 G,2 G,2 G,2 | %10
 z2 G,2 G,2 G,2- | G,G, D,2 D,2 G,,2- | G,,6 z2 |] %13

